X:1
T: Amazing Grace
C:Trad. Ecosse, fichier abc : Bernard Loffet
L:1/8
Q:240
M:9/8
K:G
 z6 D2G | [G3G,3] G,3 [BG,]AG | [B3G,3] G,3 [B2G,2]A | [G3C,3] C,3 [E3C,3] | [D3D,3] D,3 [D2D,2]G | \
 [G3G,3] G,3 [BG,]AG | [B3G,3] G,3 [A2G,2]B | [d3D,3] D,3 [d3D,3] | [d3D,3] D,3 [B2D,2]d | \
 [d3G,3] G,3 [BG,]AG | [B3G,3] G,3 [B2G,2]A | [G3C,3] C,3 [E3C,3] | [D3D,3] D,3 [D2D,2]G | \
 [G3G,3] G,3 [BG,]AG | [B3D,3] D,3 [A3D,3] | [G3C,3] C,3 [G3C,3] | [G3G,3] G,3 G,3 | \
K:C
Z:Created with TablEdit http://www.tabledit.com/ by Bernard Loffet
